config/expand/iconfont/module-menu/module-yunsong_active.svg

<?xml version="1.0" encoding="UTF-8"?>
<svg width="18px" height="18px" viewBox="0 0 18 18" version="1.1" xmlns="http://www.w3.org/2000/svg" xmlns:xlink="http://www.w3.org/1999/xlink">
    <!-- Generator: Sketch 53 (72520) - https://sketchapp.com -->
    <title>yunsongActive</title>
    <desc>Created with Sketch.</desc>
    <g id="Page-2" stroke="none" stroke-width="1" fill="none" fill-rule="evenodd">
        <g id="图标" transform="translate(-894.000000, -739.000000)" fill="#FFFFFF">
            <g id="yunsongActive" transform="translate(894.000000, 739.000000)">
                <g id="daisonghuo">
                    <path d="M1.44242085,18 C0.648080695,18 0,17.3519193 0,16.5575792 L0,3.90361446 L2.15858784,0.643037265 C2.4258896,0.239562903 2.87475483,0 3.35892407,0 L14.6082936,0 C15.0924629,0 15.5413281,0.239562903 15.8086299,0.643037265 L18,3.90109274 L18,16.5550574 C18,17.3493976 17.3519193,17.9974783 16.5575792,17.9974783 L1.44242085,17.9974783 L1.44242085,18 Z M16,15.9974724 L16,5.94487529 L2.07235809,5.94487529 L2.07235809,16 L16,16 L16,15.9974724 Z M14.2974758,2.00937866 L3.62919554,2.00937866 L2.32648925,4 L15.882198,4 L14.2974758,2.00937866 Z" id="Shape" fill-rule="nonzero"></path>
                    <path d="M9.52902128,14 C9.30842553,14 9.10144681,13.9120879 8.94621277,13.7554945 C8.79097872,13.5989011 8.70382979,13.3901099 8.70382979,13.1675824 C8.70382979,12.9450549 8.79097872,12.7362637 8.94621277,12.5796703 L10.1826383,11.3324176 L5.82519149,11.3324176 C5.37038298,11.3324176 5,10.9587912 5,10.5 C5,10.0412088 5.37038298,9.66758242 5.82519149,9.66758242 L10.1826383,9.66758242 L8.94621277,8.42032967 C8.79097872,8.26373626 8.70382979,8.05494505 8.70382979,7.83241758 C8.70382979,7.60989011 8.79097872,7.4010989 8.94621277,7.24450549 C9.10144681,7.08791209 9.30842553,7 9.52902128,7 C9.74961702,7 9.95659574,7.08791209 10.1118298,7.24450549 L12.7589787,9.91483516 C13.0803404,10.239011 13.0803404,10.7664835 12.7589787,11.0934066 L10.1118298,13.7637363 C9.95659574,13.9148352 9.74961702,14 9.52902128,14 L9.52902128,14 Z" id="Path"></path>
                </g>
            </g>
        </g>
    </g>
</svg>

<svg width="18" height="18" xmlns="http://www.w3.org/2000/svg"><path d="M1.442 18A1.445 1.445 0 010 16.558V3.904L2.159.643A1.435 1.435 0 013.359 0h11.25c.483 0 .932.24 1.2.643L18 3.901v12.654c0 .794-.648 1.442-1.442 1.442H1.442V18zM16 15.997V5.945H2.072V16H16v-.003zM14.297 2.01H3.63L2.326 4h13.556l-1.585-1.99z"/><path d="M9.529 14a.83.83 0 01-.583-1.42l1.237-1.248H5.825A.83.83 0 015 10.5a.83.83 0 01.825-.832h4.358L8.946 8.42a.83.83 0 010-1.175.816.816 0 011.166 0l2.647 2.67a.84.84 0 010 1.178l-2.647 2.67a.832.832 0 01-.583.237z"/></svg>
